img/svg/main-menu-icons/email-ico.svg

<svg width="26" height="26" viewBox="0 0 26 26" fill="none" xmlns="http://www.w3.org/2000/svg">
<path d="M24.9844 14.7305C25.5453 14.7305 26 14.2758 26 13.7148V7.0625C26 4.82244 24.1776 3 21.9375 3H4.0625C1.82244 3 0 4.82244 0 7.0625V18.793C0 21.033 1.82244 22.8555 4.0625 22.8555H21.9375C24.1776 22.8555 26 21.033 26 18.793C26 18.232 25.5453 17.7773 24.9844 17.7773C24.4234 17.7773 23.9688 18.232 23.9688 18.793C23.9688 19.913 23.0575 20.8242 21.9375 20.8242H4.0625C2.94247 20.8242 2.03125 19.913 2.03125 18.793V7.27771L10.8547 12.7644C11.5164 13.1758 12.2582 13.3815 13 13.3815C13.7418 13.3815 14.4836 13.1758 15.1453 12.7644L23.9688 7.27771V13.7148C23.9688 14.2758 24.4234 14.7305 24.9844 14.7305ZM14.0726 11.0394C13.411 11.4508 12.589 11.4508 11.9274 11.0394L2.87874 5.41272C3.21227 5.17273 3.62116 5.03125 4.0625 5.03125H21.9375C22.3788 5.03125 22.7877 5.17278 23.1213 5.41277L14.0726 11.0394Z" fill="#E0E0E0"/>
</svg>

<svg width="26" height="26" fill="none" xmlns="http://www.w3.org/2000/svg"><path d="M24.984 14.73c.561 0 1.016-.454 1.016-1.015V7.063A4.067 4.067 0 0021.937 3H4.063A4.067 4.067 0 000 7.063v11.73a4.067 4.067 0 004.063 4.063h17.875A4.067 4.067 0 0026 18.793a1.016 1.016 0 10-2.031 0c0 1.12-.912 2.031-2.032 2.031H4.063a2.034 2.034 0 01-2.03-2.031V7.278l8.823 5.486a4.056 4.056 0 002.145.618c.742 0 1.484-.206 2.145-.618l8.824-5.486v6.437c0 .56.454 1.015 1.015 1.015zm-10.911-3.69a2.019 2.019 0 01-2.146 0L2.88 5.412a2.02 2.02 0 011.183-.382h17.875c.442 0 .85.142 1.184.382l-9.048 5.626z" fill="#E0E0E0"/></svg>
